rospo-newyear-dark/symbolic/status/radio-checked-symbolic.svg

<svg height="16" width="16" xmlns="http://www.w3.org/2000/svg"><path d="m8 5c-1.66 0-3 1.34-3 3s1.34 3 3 3 3-1.34 3-3-1.34-3-3-3z" fill="#d3dae3"/><path d="m8 1c-3.86 0-7 3.14-7 7s3.14 7 7 7 7-3.14 7-7-3.14-7-7-7zm0 1c3.32 0 6 2.68 6 6s-2.68 6-6 6-6-2.68-6-6 2.68-6 6-6z" fill="#d3dae3"/></svg>

<svg xmlns="http://www.w3.org/2000/svg" width="16" height="16" version="1.1">
 <path style="fill:#d3dae3" d="M 8,5 C 6.34,5 5,6.34 5,8 5,9.66 6.34,11 8,11 9.66,11 11,9.66 11,8 11,6.34 9.66,5 8,5 Z"/>
 <path style="fill:#d3dae3" d="M 8,1 C 4.14,1 1,4.14 1,8 1,11.86 4.14,15 8,15 11.86,15 15,11.86 15,8 15,4.14 11.86,1 8,1 Z M 8,2 C 11.32,2 14,4.68 14,8 14,11.32 11.32,14 8,14 4.68,14 2,11.32 2,8 2,4.68 4.68,2 8,2 Z"/>
</svg>
